X:1590
T:Donkey Riding
O:england
M:4/4
L:1/8
Q:1/4=108
C:Trad
K:G
|: G A BB cA B2|BAA G/2A/2 BA A2|G A BB cA B2|BAdd G2 G2:|
|: e2 d>c cd B2|BAA G/2A/2 BA A2|e2 d>c cd B2|BAdd G2G2:|
